src/symbolic/status/weather-overcast-symbolic.svg

<svg xmlns="http://www.w3.org/2000/svg" width="16" height="16" version="1.1">
 <path style="fill:#444444" d="M 10,8 C 8.69,8 7.6,8.86 7.19,10.03 5.96,10.19 5,11.23 5,12.5 5,13.88 6.12,15 7.5,15 H 12.5 C 13.88,15 15,13.88 15,12.5 15,11.23 14.04,10.19 12.81,10.03 12.41,8.86 11.31,8 10,8 Z"/>
 <path style="fill:#444444" d="M 8,0 C 5.93,0 4.1702,1.2705 3.4102,3.0605 1.4802,3.3505 0,4.99 0,7 0,9.21 1.79,11 4,11 H 4.3945 C 4.8388,10.204 5.6169,9.6129 6.5234,9.3223 7.1696,8.0017 8.4228,7 10,7 11.573,7 12.83,7.9972 13.473,9.3203 13.983,9.4834 14.453,9.7437 14.848,10.08 15.551,9.4395 16,8.5242 16,7.5 16,5.7 14.65,4.2293 12.91,4.0293 12.45,1.7393 10.43,0 8,0 Z"/>
</svg>

<svg xmlns="http://www.w3.org/2000/svg" width="16" height="16"><path d="M10 8c-1.31 0-2.4.86-2.81 2.03C5.96 10.19 5 11.23 5 12.5A2.5 2.5 0 0 0 7.5 15h5a2.5 2.5 0 0 0 2.5-2.5c0-1.27-.96-2.31-2.19-2.47C12.41 8.86 11.31 8 10 8z" fill="#444"/><path d="M8 0C5.93 0 4.17 1.27 3.41 3.06 1.48 3.35 0 4.99 0 7c0 2.21 1.79 4 4 4h.394c.445-.796 1.223-1.387 2.13-1.678C7.17 8.002 8.422 7 10 7c1.573 0 2.83.997 3.473 2.32.51.163.98.424 1.375.76A3.482 3.482 0 0 0 16 7.5c0-1.8-1.35-3.27-3.09-3.47C12.45 1.74 10.43 0 8 0z" fill="#444"/></svg>
